X:1
T:Title
%%score { 1 | 2 }
L:1/8
M:6/8
K:Ab
V:1 treble nm="Grand Piano"
V:2 bass 
V:1
 z3 z2[Q:1/4=84] [CE] | [Ec][DB][CA] [CE][_C=D][=CE] | [DF] [CE]2 z2 [CE] | [CEA][B,EA][A,CA] AGA | %4
 B3- B2 d | [Ec][DB][CA] [CE][_C=D][=CE] | [DF] [CE]2 z2 [CE] | [DF][FA]F EAB | %8
[M:5/8] [CA]-[CA]- [CA]3 |[M:1/8] c |[M:3/4] e>e ec BA | c .c3 z c | e>e ec BA | [GB]4- [GB][Fd] | %14
 [Ec][DB] [CA][CE] [_C=D][=CE] | [DF] .[CE]3 z [CE] | [DF][FA] FE AB |[M:5/8] [CA]-[CA]- [CA]3 |] %18
V:2
 z3 z2 [A,,A,] | [A,,A,][A,,A,][A,,A,] [A,,A,][A,,A,][A,,A,] | [A,,A,] [A,,A,]2 z2 [A,,A,] | %3
 A,,A,,A,, [F,B,=D][F,B,D][F,B,D] | [E,G,E]3- [E,G,E]2 [E,G,E] | %5
 [A,,A,][A,,A,][A,,A,] [A,,A,][A,,A,][A,,A,] | [A,,A,] [A,,A,]2 z2 [A,,A,] | %7
 [D,A,][D,A,][D,A,D] [E,A,C][E,A,C][E,G,D] |[M:5/8] [A,,A,]-[A,,A,]- [A,,A,]3 | %9
[M:1/8][K:treble] [A,E] |[M:3/4] [A,CA]>[A,CA] [A,CA][A,EA] [A,DA][A,C] | %11
 [A,EA] .[A,EA]3 z [A,EA] | [A,CA]>[A,CA] [A,CA][A,EA][K:bass] [G,E][F,=DF] | [E,E]4- [E,E][E,G,] | %14
 [A,,A,][A,,A,] [A,,A,][A,,A,] [A,,A,][A,,A,] | [A,,A,] .[A,,A,]3 z [A,,A,] | %16
 [D,A,][D,A,] [D,A,D][E,A,C] [E,A,C][E,G,D] |[M:5/8] [A,,A,]-[A,,A,]- [A,,A,]3 |] %18

